svg/furkot/freepik/ruins.svg

<svg viewBox="0 0 512 512" xmlns="http://www.w3.org/2000/svg"><path d="m45.969 132.94c.226 0 .477-.008.711-.032l270.675-23.423c3.921-.338 7.052-3.398 7.507-7.32l10.41-92.98c.291-2.647-.71-5.286-2.695-7.062-1.985-1.792-4.68-2.518-7.328-1.912l-110.818 24.792c-1.582.356-3.027 1.172-4.148 2.334-8.37 8.701-34.439 31.292-54.248 31.292-4.681 0-8.644-1.276-12.082-3.89-1.646-1.267-3.745-1.865-5.802-1.654l-92.98 8.952c-4.236.402-7.464 3.954-7.464 8.224v54.416c0 2.316.968 4.528 2.679 6.086 1.517 1.41 3.518 2.177 5.583 2.177zm444.853 368.577-16.53-48.897c-1.146-3.358-4.296-5.616-7.831-5.616h-48.489v-150.145c0-4.572-3.696-8.265-8.266-8.265h-33.06v-40.64c0-2.326-1.162-4.528-2.883-6.095-1.708-1.557-4.196-2.348-6.504-2.122-5.343 0-16.948-8.152-33.512-31.024-2.112-2.923-5.866-4.133-9.231-3.018-3.415 1.104-5.723 4.285-5.723 7.86v233.449h-23.521v-233.449c0-2.802-1.422-5.409-3.77-6.933-2.347-1.534-5.326-1.767-7.86-.613l-7.028 3.131 18.004-42.688c.439-1.018.655-2.108.655-3.213v-24.795c0-4.568-3.696-8.264-8.265-8.264h-82.648c-4.575 0-8.264 3.696-8.264 8.264v308.56h-22.018v-308.56c0-4.568-3.697-8.264-8.264-8.264h-82.652c-4.577 0-8.264 3.696-8.264 8.264v308.56h-28.929c-3.55 0-6.697 2.254-7.827 5.616l-16.53 48.897c-.855 2.528-.435 5.311 1.114 7.466 1.559 2.154 4.044 3.446 6.716 3.446h453.551c2.663 0 5.166-1.282 6.716-3.446 1.556-2.172 1.959-4.946 1.113-7.466z"/></svg>

<svg xmlns="http://www.w3.org/2000/svg" viewBox="0 0 512 512"><path d="M45.969 132.94C46.195 132.94 46.446 132.932 46.68 132.908L317.355 109.485C321.276 109.147 324.407 106.087 324.862 102.165L335.272 9.185C335.563 6.538 334.562 3.899 332.577 2.123 330.592 0.331 327.897-0.395 325.249 0.211L214.431 25.003C212.849 25.359 211.404 26.175 210.283 27.337 201.913 36.038 175.844 58.629 156.035 58.629 151.354 58.629 147.391 57.353 143.953 54.739 142.307 53.472 140.208 52.874 138.151 53.085L45.171 62.037C40.935 62.439 37.707 65.991 37.707 70.261V124.677C37.707 126.993 38.675 129.205 40.386 130.763 41.903 132.173 43.904 132.94 45.969 132.94ZM490.822 501.517L474.292 452.62C473.146 449.262 469.996 447.004 466.461 447.004H417.972V296.859C417.972 292.287 414.276 288.594 409.706 288.594H376.646V247.954C376.646 245.628 375.484 243.426 373.763 241.859 372.055 240.302 369.567 239.511 367.259 239.737 361.916 239.737 350.311 231.585 333.747 208.713 331.635 205.79 327.881 204.58 324.516 205.695 321.101 206.799 318.793 209.98 318.793 213.555V447.004H295.272V213.555C295.272 210.753 293.85 208.146 291.502 206.622 289.155 205.088 286.176 204.855 283.642 206.009L276.614 209.14 294.618 166.452C295.057 165.434 295.273 164.344 295.273 163.239V138.444C295.273 133.876 291.577 130.18 287.008 130.18H204.36C199.785 130.18 196.096 133.876 196.096 138.444V447.004H174.078V138.444C174.078 133.876 170.381 130.18 165.814 130.18H83.162C78.585 130.18 74.898 133.876 74.898 138.444V447.004H45.969C42.419 447.004 39.272 449.258 38.142 452.62L21.612 501.517C20.757 504.045 21.177 506.828 22.726 508.983 24.285 511.137 26.77 512.429 29.442 512.429H482.993C485.656 512.429 488.159 511.147 489.709 508.983 491.265 506.811 491.668 504.037 490.822 501.517Z"/></svg>
